Origami/64x64/apps/yast-modem.svg

<svg width="64" height="64" version="1" xmlns="http://www.w3.org/2000/svg">
 <rect x="4" y="33" width="56" height="28" rx="4.2" ry="4.2" style="opacity:.2"/>
 <rect transform="rotate(90)" x="4" y="-18" width="34" height="6" ry="3" style="fill:#8e8e8e"/>
 <rect x="4" y="32" width="56" height="28" rx="4.2" ry="4.2" style="fill:#4f4f4f"/>
 <circle cx="48" cy="47" r="6" style="opacity:.2"/>
 <circle cx="48" cy="46" r="6" style="fill:#c0f957"/>
 <circle cx="32" cy="47" r="6" style="opacity:.2"/>
 <circle cx="32" cy="46" r="6" style="fill:#91af5b"/>
 <path d="m15 4c-1.662 0-3 1.338-3 3v1c0-1.662 1.338-3 3-3s3 1.338 3 3v-1c0-1.662-1.338-3-3-3z" style="fill:#ffffff;opacity:.1"/>
 <path d="m8.1992188 32c-2.3267999 0-4.1992188 1.872419-4.1992188 4.199219v1c0-2.3268 1.8724189-4.199219 4.1992188-4.199219h47.601562c2.3268 0 4.199219 1.872419 4.199219 4.199219v-1c0-2.3268-1.872419-4.199219-4.199219-4.199219h-47.601562z" style="fill:#ffffff;opacity:.1"/>
</svg>

<svg xmlns="http://www.w3.org/2000/svg" width="64" height="64" version="1">
 <rect style="opacity:0.2" width="56" height="28" x="4" y="33" rx="4.2" ry="4.2"/>
 <rect style="fill:#8e8e8e" width="34" height="6" x="4" y="-18" ry="3" transform="matrix(0,1,-1,0,0,0)"/>
 <rect style="fill:#4f4f4f" width="56" height="28" x="4" y="32" rx="4.2" ry="4.2"/>
 <circle style="opacity:0.2" cx="48" cy="47" r="6"/>
 <circle style="fill:#c0f957" cx="48" cy="46" r="6"/>
 <circle style="opacity:0.2" cx="32" cy="47" r="6"/>
 <circle style="fill:#91af5b" cx="32" cy="46" r="6"/>
 <path style="fill:#ffffff;opacity:0.1" d="M 15 4 C 13.338 4 12 5.338 12 7 L 12 8 C 12 6.338 13.338 5 15 5 C 16.662 5 18 6.338 18 8 L 18 7 C 18 5.338 16.662 4 15 4 z"/>
 <path style="fill:#ffffff;opacity:0.1" d="M 8.1992188 32 C 5.8724189 32 4 33.872419 4 36.199219 L 4 37.199219 C 4 34.872419 5.8724189 33 8.1992188 33 L 55.800781 33 C 58.127581 33 60 34.872419 60 37.199219 L 60 36.199219 C 60 33.872419 58.127581 32 55.800781 32 L 8.1992188 32 z"/>
</svg>
